img/header/planet.svg

<svg width="15" height="15" viewBox="0 0 15 15" fill="none" xmlns="http://www.w3.org/2000/svg">
<path d="M12.7848 2.21516C12.0921 1.51553 11.2679 0.959673 10.3596 0.57953C9.45138 0.199386 8.47697 0.00244596 7.49238 2.26397e-05C6.50779 -0.00240068 5.53242 0.189741 4.62231 0.565409C3.71221 0.941077 2.88529 1.49287 2.18908 2.18908C1.49287 2.88529 0.941077 3.71221 0.565409 4.62231C0.189741 5.53242 -0.00240068 6.50779 2.26397e-05 7.49238C0.00244596 8.47697 0.199386 9.45138 0.57953 10.3596C0.959673 11.2679 1.51553 12.0921 2.21516 12.7848C2.90794 13.4845 3.73212 14.0403 4.64037 14.4205C5.54862 14.8006 6.52303 14.9976 7.50762 15C8.49221 15.0024 9.46758 14.8103 10.3777 14.4346C11.2878 14.0589 12.1147 13.5071 12.8109 12.8109C13.5071 12.1147 14.0589 11.2878 14.4346 10.3777C14.8103 9.46758 15.0024 8.49221 15 7.50762C14.9976 6.52303 14.8006 5.54862 14.4205 4.64037C14.0403 3.73212 13.4845 2.90794 12.7848 2.21516ZM1.09373 7.5C1.09349 6.93301 1.16866 6.36852 1.31728 5.82136C1.56219 6.34854 1.91787 6.80399 2.15977 7.34485C2.47241 8.0402 3.3119 7.84734 3.6826 8.4566C4.01158 8.99747 3.66024 9.68147 3.90648 10.2474C4.08532 10.6581 4.50707 10.7478 4.79802 11.0481C5.09531 11.3511 5.08897 11.7662 5.13435 12.1612C5.18555 12.6254 5.26861 13.0855 5.38293 13.5382C5.38293 13.5416 5.38293 13.5453 5.3856 13.5486C2.88882 12.6717 1.09373 10.2917 1.09373 7.5ZM7.5 13.9063C7.14223 13.9062 6.78509 13.8762 6.43229 13.8169C6.43596 13.7264 6.43763 13.642 6.44664 13.5833C6.52771 13.0528 6.79331 12.5339 7.15166 12.1369C7.50567 11.7452 7.99081 11.4802 8.28977 11.0358C8.58273 10.602 8.67048 10.0181 8.5497 9.5113C8.37185 8.76257 7.35452 8.51266 6.80599 8.10659C6.49068 7.87303 6.21007 7.51201 5.796 7.48265C5.60514 7.4693 5.44532 7.51034 5.25614 7.46163C5.08263 7.41658 4.9465 7.32316 4.76165 7.34752C4.41631 7.39289 4.19843 7.76192 3.8274 7.71187C3.47539 7.66483 3.1127 7.25276 3.03263 6.91743C2.92986 6.48634 3.27086 6.34654 3.63622 6.30817C3.7887 6.29215 3.95987 6.2748 4.10634 6.33085C4.2992 6.40226 4.39029 6.59111 4.56346 6.68654C4.88811 6.86471 4.95384 6.5801 4.90412 6.29182C4.82972 5.86006 4.74297 5.68422 5.12801 5.38693C5.39494 5.18206 5.62316 5.03392 5.58045 4.66589C5.5551 4.44968 5.43665 4.35192 5.54709 4.13671C5.63084 3.97288 5.86073 3.82507 6.01054 3.72731C6.39725 3.47506 7.66716 3.49374 7.14832 2.78772C6.99584 2.58052 6.71456 2.21015 6.44764 2.15944C6.11398 2.09638 5.96583 2.46874 5.73327 2.6329C5.49303 2.80273 5.02524 2.99559 4.78467 2.733C4.46102 2.37965 4.99922 2.26387 5.11833 2.01696C5.17339 1.90185 5.11833 1.74203 5.02558 1.59155C5.14592 1.54083 5.26826 1.49379 5.3926 1.45041C5.47053 1.50797 5.56297 1.54263 5.65953 1.55051C5.88275 1.56519 6.09329 1.4444 6.28815 1.59655C6.50436 1.76338 6.66018 1.97426 6.94713 2.02631C7.22473 2.07669 7.51869 1.91486 7.58742 1.63059C7.62913 1.45775 7.58742 1.27524 7.54738 1.09673C8.79527 1.10391 10.0136 1.47763 11.0508 2.17145C10.9841 2.14609 10.9043 2.14909 10.8059 2.19481C10.6034 2.2889 10.3164 2.52847 10.2927 2.76603C10.2657 3.03563 10.6634 3.07367 10.8523 3.07367C11.1359 3.07367 11.4232 2.94687 11.3318 2.61922C11.292 2.47708 11.238 2.32927 11.1509 2.23985C11.3603 2.38511 11.5608 2.54265 11.7515 2.71164C11.7485 2.71465 11.7455 2.71732 11.7425 2.72065C11.5503 2.92085 11.3271 3.07934 11.1956 3.32291C11.1029 3.49441 10.9984 3.57582 10.8106 3.6202C10.7071 3.64456 10.589 3.65357 10.5023 3.72297C10.2607 3.91315 10.3982 4.37027 10.6271 4.5074C10.9163 4.68057 11.3454 4.59916 11.5636 4.35192C11.7341 4.15839 11.8346 3.8224 12.1412 3.82273C12.2762 3.82245 12.4059 3.87531 12.5022 3.96988C12.629 4.10134 12.604 4.22413 12.631 4.38829C12.6787 4.6799 12.936 4.52175 13.0925 4.37461C13.2065 4.57761 13.3095 4.78668 13.4008 5.00089C13.2286 5.2488 13.0918 5.51906 12.6777 5.23011C12.4298 5.05694 12.2773 4.80569 11.966 4.72762C11.6941 4.66089 11.4155 4.73029 11.1469 4.77667C10.8416 4.82972 10.4796 4.85307 10.248 5.0843C10.0241 5.30719 9.90569 5.60548 9.66746 5.82936C9.20667 6.26312 9.01215 6.73659 9.31044 7.34985C9.59739 7.93943 10.1976 8.25941 10.8453 8.21737C11.4816 8.17499 12.1425 7.80597 12.1242 8.73054C12.1175 9.05786 12.1859 9.28441 12.2864 9.58838C12.3794 9.86865 12.3731 10.1403 12.3945 10.4295C12.4148 10.7683 12.4677 11.1043 12.5526 11.4329C11.9546 12.2029 11.1884 12.826 10.3127 13.2547C9.43706 13.6834 8.47498 13.9062 7.5 13.9063Z" fill="#D3D3D3"/>
</svg>

<svg width="15" height="15" fill="none" xmlns="http://www.w3.org/2000/svg"><path d="M12.785 2.215A7.473 7.473 0 000 7.492a7.474 7.474 0 002.215 5.293 7.474 7.474 0 1010.57-10.57zM1.094 7.5c0-.567.075-1.131.223-1.679.245.528.6.983.843 1.524.312.695 1.152.502 1.523 1.112.329.54-.023 1.224.223 1.79.18.411.601.5.892.801.297.303.291.718.336 1.113.052.464.135.925.249 1.377 0 .004 0 .007.003.01A6.42 6.42 0 011.094 7.5zM7.5 13.906c-.358 0-.715-.03-1.068-.09.004-.09.006-.174.015-.233.08-.53.346-1.05.705-1.446.354-.392.839-.657 1.138-1.101.293-.434.38-1.018.26-1.525-.178-.748-1.195-.998-1.744-1.404-.315-.234-.596-.595-1.01-.624-.19-.014-.35.027-.54-.021-.173-.045-.31-.139-.494-.114-.346.045-.564.414-.935.364-.352-.047-.714-.46-.794-.795-.103-.43.238-.57.603-.609.153-.016.324-.033.47.023.193.071.284.26.457.356.325.178.39-.107.341-.395-.074-.432-.161-.608.224-.905.267-.205.495-.353.452-.721-.025-.216-.143-.314-.033-.53.084-.163.314-.31.464-.409.386-.252 1.656-.233 1.137-.94-.152-.206-.433-.577-.7-.628-.334-.063-.482.31-.715.474-.24.17-.708.363-.948.1-.324-.353.214-.47.333-.716.055-.115 0-.275-.092-.425.12-.051.242-.098.367-.142a.52.52 0 00.267.1c.223.015.433-.106.628.047.216.166.372.377.66.43.277.05.57-.112.64-.396.041-.173 0-.356-.04-.534A6.367 6.367 0 0111.05 2.17c-.067-.025-.147-.022-.245.024-.203.094-.49.333-.513.571-.027.27.37.308.56.308.283 0 .57-.127.479-.455-.04-.142-.094-.29-.181-.38.21.146.41.304.6.473l-.008.009c-.193.2-.416.358-.547.602a.527.527 0 01-.385.297c-.104.025-.222.034-.309.103-.241.19-.104.647.125.784.29.174.718.092.937-.155.17-.194.27-.53.577-.53.135 0 .265.053.361.148.127.131.102.254.129.418.048.292.305.134.461-.013.114.203.217.412.309.626-.172.248-.31.518-.723.23-.248-.174-.4-.425-.712-.503-.272-.067-.55.002-.82.049-.304.053-.666.076-.898.307-.224.223-.342.521-.58.745-.461.434-.656.908-.358 1.52.287.59.888.91 1.535.868.637-.042 1.297-.411 1.28.514-.008.327.06.553.161.857.093.28.087.552.109.842.02.338.073.674.158 1.003A6.398 6.398 0 017.5 13.906z" fill="#D3D3D3"/></svg>
